!! Stephen C. Foster, "The Song of All Songs"
!! from 'Stephen Foster Song Book' Dover Publications (New York) pp. 119-121
!! NOTE:  Leading and trailing bars of rest have been omitted.
**kern
*M4/4
*MM82
*F:
8cc
8b-
=1
4a
8.f
16f
4f
8g
8a
=2
4b-
8g
8g
4g
4cc
=3
4a
8f
8f
4f
8a
8a
=4
8g
8f
8e
8d
4c
8cc
8b-
=5
4a
8f
8f
4f
8a
8a
=6
4b-
8g
8g
4g
4cc
=7
8c
8c
8f
8f
8g
8g
8cc
8b-
=8
4a
8f
8f
4f
8r
8cc
=9
8cc
8cc
4cc
4ff
8ee
8dd
=10
4dd
8cc
8cc
4cc
4a
=11
4cc
8cc
8cc
4ff
8ee
8dd
=12
4dd
8cc
8cc
4cc
8r
8cc
=13
8a
8f
4f
4f
8g
8a
=14
4b-
8g
8g
4g
8cc
8cc
=15
4c
8f
8f
8g
4cc
8b-
=16
4a
8f
8f
4f
4r
!! Chorus
=17
4ff
4cc
4dd
4cc
=18
8b-
8a
8g
8f
4dd'
8r
8c
=19
8c
8f
4f
4g
8cc
8b-
=20
4a
8f
8f
4f
4r
==
*-
